.local/share/icons/Gruvbox-Plus-Dark/panel/16/xchat-panel.svg

<svg width="16" height="16" version="1.1" xmlns="http://www.w3.org/2000/svg">
  <defs>
    <style id="current-color-scheme" type="text/css">.ColorScheme-Text { color:#ebdbb2; } .ColorScheme-Highlight { color:#458588; } .ColorScheme-NeutralText { color:#fe8019; } .ColorScheme-PositiveText { color:#689d6a; } .ColorScheme-NegativeText { color:#fb4934; }</style>
  </defs>
  <path class="ColorScheme-Text" d="m3.408 1c-0.2556 0-0.5229 0.0854-0.7187 0.2812l-1.406 1.406c-0.3917 0.3917-0.3917 1.046 0 1.438l0.875 0.875h5.688l-3.719-3.719c-0.1959-0.1959-0.4631-0.2813-0.7188-0.2813zm8.469 0.2812-3.719 3.719h5.688l0.875-0.875c0.391-0.3917 0.391-1.046 0-1.438l-1.407-1.406c-0.3732-0.3747-1.059-0.3778-1.437 0zm-7.876 4.719v3.5c-0.0096 0.676 1.01 0.676 1 0v-1.5h1v1.5c-0.0096 0.676 1.01 0.676 1 0v-2c-5e-4 -0.2758-0.2242-0.4992-0.5-0.4992h-1.5v-1c-0.0042-0.2816-0.2399-0.4925-0.5132-0.4928-0.2652-3.688e-4 -0.4828 0.2272-0.4868 0.492zm9 0v1h-0.5c-0.646 0.0204-0.646 0.9792 0 0.9996h0.5v1.5c0 0.2761 0.224 0.5 0.5 0.5h1.5c0.676 0.0096 0.676-1.01 0-1h-1v-1h1c0.688 0.0218 0.688-1.021 0-0.9996h-1v-1c-4e-3 -0.2813-0.2398-0.4918-0.513-0.492-0.273-2.188e-4 -0.483 0.2273-0.487 0.492zm-12.5 0.9999c-0.276 0-0.4998 0.2236-0.5 0.4996v2c2.761e-5 0.2761 0.2239 0.5 0.5 0.5h2c0.6762 0.0096 0.6762-1.01 0-1h-1.5v-1h1.5c0.6762 0.0096 0.6762-1.01 0-1zm8 0c-0.276 0-0.4998 0.2236-0.5 0.4996v2c0 0.2761 0.2239 0.5 0.5 0.5h0.75c0.6762 0.0096 0.6762-1.01 0-1h-0.25v-1h1v1.5c-0.0096 0.676 1.01 0.676 1 0v-2c0-0.276-0.224-0.4996-0.5-0.4996zm-6.344 4-0.875 0.875c-0.3917 0.392-0.3917 1.046 0 1.438l1.406 1.406c0.3917 0.392 1.046 0.392 1.438 0l3.719-3.719zm6 0 3.719 3.719c0.392 0.392 1.046 0.392 1.438 0l1.406-1.406c0.392-0.392 0.392-1.046 0-1.438l-0.875-0.875z" fill="currentColor"/>
</svg>

<svg xmlns="http://www.w3.org/2000/svg" width="16" height="16" version="1.1">
 <defs>
  <style id="current-color-scheme" type="text/css">
   .ColorScheme-Text { color:#ebdbb2; } .ColorScheme-Highlight { color:#458588; }
  </style>
 </defs>
 <path style="fill:currentColor;fill-rule:evenodd" class="ColorScheme-Text" d="M 3.4062,0.9874 C 3.1506,0.9874 2.8833,1.0728 2.6875,1.2686 L 1.2812,2.6749 C 0.8895,3.0666 0.8895,3.7206 1.2812,4.1124 L 2.1562,4.9874 H 7.844 L 4.125,1.2686 C 3.9291,1.0727 3.6619,0.9873 3.4062,0.9873 Z M 12.594,0.9874 C 12.332,0.9874 12.071,1.0728 11.875,1.2686 L 8.156,4.9874 H 13.844 L 14.719,4.1124 C 15.11,3.7207 15.11,3.0666 14.719,2.6749 L 13.312,1.2687 C 13.117,1.0729 12.855,0.9875 12.594,0.9875 Z M 4.4782,5.4953 C 4.2135,5.5067 4.0037,5.7225 3.9997,5.9874 V 7.487 9.487 C 3.9901,10.163 5.0093,10.163 4.9997,9.487 V 7.987 H 5.9997 V 9.487 C 5.9901,10.163 7.0093,10.163 6.9997,9.487 V 7.487 C 6.9992,7.2112 6.7755,6.9878 6.4997,6.9878 H 4.9997 V 5.9878 C 4.9955,5.7062 4.7596,5.4836 4.4782,5.4957 Z M 13.478,5.4953 C 13.214,5.5069 13.004,5.7227 13,5.9874 V 6.9874 H 12.5 C 11.854,7.0078 11.854,7.9666 12.5,7.987 H 13 V 9.487 C 13,9.7631 13.224,9.987 13.5,9.987 H 15 C 15.676,9.9966 15.676,8.9774 15,8.987 H 14 V 7.987 H 15 C 15.688,8.0088 15.688,6.9656 15,6.9874 H 14 V 5.9874 C 13.996,5.7061 13.76,5.4839 13.479,5.4957 Z M 0.5,6.9874 C 0.22403,6.9874 2.4835e-4,7.211 0,7.487 V 9.487 C 2.7609e-5,9.7631 0.22387,9.987 0.5,9.987 H 2.5 C 3.1762,9.9966 3.1762,8.9774 2.5,8.987 H 1 V 7.987 H 2.5 C 3.1762,7.9966 3.1762,6.9774 2.5,6.987 H 0.5 Z M 8.5,6.9874 C 8.224,6.9874 8.0002,7.211 8,7.487 V 9.487 C 8,9.7631 8.2239,9.987 8.5,9.987 H 9.25 C 9.9262,9.9966 9.9262,8.9774 9.25,8.987 H 9 V 7.987 H 10 V 9.487 C 9.9904,10.163 11.01,10.163 11,9.487 V 7.487 C 11,7.211 10.776,6.9874 10.5,6.9874 Z M 2.1564,10.987 1.2814,11.862 C 0.8897,12.254 0.8897,12.908 1.2814,13.3 L 2.6876,14.706 C 3.0793,15.098 3.7334,15.098 4.1251,14.706 L 7.844,10.987 Z M 8.156,10.987 11.875,14.706 C 12.267,15.098 12.921,15.098 13.313,14.706 L 14.719,13.3 C 15.111,12.908 15.111,12.254 14.719,11.862 L 13.844,10.987 Z"/>
</svg>
